16x16/apps/chrome-ejidjjhkpiempkbhmpbfngldlkglhimk-Default.svg

<svg xmlns="http://www.w3.org/2000/svg" width="16" height="16" version="1.1">
 <path style="fill:#afafaf" d="M 0,4.0923049 V 12.910212 C 0,13.512761 0.5362188,14 1.1992188,14 H 4 V 7.9885894 L 0.84765626,5.6234764 A 1.9911648,1.9917374 0 0 1 0.00390625,4.0942579 Z"/>
 <path style="fill:#5f5f5f" d="m 15.999666,4.0923049 -0.002,0.00195 A 1.9911647,1.9917374 0 0 1 15.179354,5.6234764 L 11.999666,8.0100727 V 14 h 2.800781 c 0.663,0 1.199219,-0.487239 1.199219,-1.089788 z"/>
 <path style="fill:#8f8f8f" d="M 4,3.000154 V 7.9847542 L 8.0136719,11.000154 12,8.0062648 V 3.0216647 L 8.0136719,6.0155536 Z"/>
 <path style="fill:#727272" d="M 1.9422627,2.0006153 A 1.9903365,1.9917374 0 0 0 0.84896774,5.6234764 L 4.0000001,7.9885894 V 3.0103291 L 3.2346937,2.4361398 A 1.9903365,1.9917374 0 0 0 1.9422627,2.0006153 Z"/>
 <path style="fill:#7d7d7d" d="M 14.032531,2.0201455 A 1.9908332,1.9917374 0 0 0 12.792503,2.4361398 L 11.999666,3.0318124 V 8.0100727 L 15.178825,5.6234764 A 1.9908332,1.9917374 0 0 0 14.032531,2.0201455 Z"/>
</svg>

<svg xmlns="http://www.w3.org/2000/svg" width="16" height="16"><path style="fill:#afafaf" d="M0 4.092v8.818C0 13.513.536 14 1.2 14H4V7.989L.848 5.623a1.991 1.992 0 0 1-.844-1.529z"/><path style="fill:#5f5f5f" d="m16 4.092-.002.002a1.991 1.992 0 0 1-.819 1.53L12 8.01V14H14.8c.663 0 1.2-.487 1.2-1.09z"/><path style="fill:#8f8f8f" d="M4 3v4.985L8.014 11 12 8.006V3.022L8.014 6.016z"/><path style="fill:#727272" d="M1.942 2A1.99 1.992 0 0 0 .85 5.624L4 7.99V3.01l-.765-.574a1.99 1.992 0 0 0-1.293-.435z"/><path style="fill:#7d7d7d" d="M14.033 2.02a1.99 1.992 0 0 0-1.24.416L12 3.032V8.01l3.179-2.387a1.99 1.992 0 0 0-1.146-3.603z"/></svg>
